remix/Editor/list-unordered.svg

<svg viewBox="0 0 24 24" fill="currentColor" xmlns="http://www.w3.org/2000/svg"><path d="M8 4H21V6H8V4ZM4.5 6.5C3.67157 6.5 3 5.82843 3 5C3 4.17157 3.67157 3.5 4.5 3.5C5.32843 3.5 6 4.17157 6 5C6 5.82843 5.32843 6.5 4.5 6.5ZM4.5 13.5C3.67157 13.5 3 12.8284 3 12C3 11.1716 3.67157 10.5 4.5 10.5C5.32843 10.5 6 11.1716 6 12C6 12.8284 5.32843 13.5 4.5 13.5ZM4.5 20.4C3.67157 20.4 3 19.7284 3 18.9C3 18.0716 3.67157 17.4 4.5 17.4C5.32843 17.4 6 18.0716 6 18.9C6 19.7284 5.32843 20.4 4.5 20.4ZM8 11H21V13H8V11ZM8 18H21V20H8V18Z"/></svg>

<svg viewBox="0 0 24 24" xmlns="http://www.w3.org/2000/svg"><path fill="none" d="M0 0h24v24H0Z"/><path d="M8 4h13v2H8V4ZM4.5 6.5v0C3.67 6.5 3 5.82 3 5c0-.83.67-1.5 1.5-1.5v0C5.32 3.5 6 4.17 6 5c0 .82-.68 1.5-1.5 1.5Zm0 7v0c-.83 0-1.5-.68-1.5-1.5 0-.83.67-1.5 1.5-1.5v0c.82 0 1.5.67 1.5 1.5 0 .82-.68 1.5-1.5 1.5Zm0 6.9v0c-.83 0-1.5-.68-1.5-1.5 0-.83.67-1.5 1.5-1.5v0c.82 0 1.5.67 1.5 1.5 0 .82-.68 1.5-1.5 1.5ZM8 11h13v2H8v-2Zm0 7h13v2H8v-2Z"/></svg>
